X: 31860
T: Pauline's Place
R: reel
M: 4/4
K: Gmajor
A|:BD (3DDD B,DGB|AGBG AGEG|BE (3EEE CEGe|dBGB A2 GA|
BD (3DDD B,DGB|AGBG AGEG|Be (3eee dBGB|ADFA G3A:|
Bd (3ddd BdGB|dGBd gdBG|ceed e3f|gefd edBA|
Bd (3ddd BdGB|dGBd gdBG|ce (3eee dBGB|ADFA G3A:|

